extensions/mini-tool/assets/logo.svg

<svg width="160" height="145" viewBox="0 0 160 145" fill="none" xmlns="http://www.w3.org/2000/svg">
<path fill-rule="evenodd" clip-rule="evenodd" d="M129.882 24.4781C129.882 39.5416 129.882 54.6051 129.882 69.6685C129.987 79.2947 129.882 88.9184 129.569 98.5402C127.572 118.975 117.219 133.307 98.5099 141.534C72.802 149.908 52.2002 143.109 36.7059 121.135C34.5525 117.252 32.7743 113.277 31.3726 109.21C30.7451 106.281 30.1177 103.352 29.4902 100.423C29.2813 85.145 29.4902 69.8719 30.1177 54.6051C39.7923 49.0862 49.5179 43.6464 59.2942 38.2863C59.6079 51.256 59.7127 64.2275 59.6079 77.2003C59.4021 84.2167 59.611 91.1208 60.2354 97.9126C61.8103 107.072 67.2484 111.884 76.5491 112.348C85.9057 112.084 91.8664 107.482 94.4315 98.5402C94.7452 93.7331 94.8494 88.9209 94.7452 84.1044C94.7452 73.2254 94.7452 62.3458 94.7452 51.4669C94.5413 40.4347 94.7502 29.451 95.3726 18.5155C106.587 12.2176 117.881 6.04579 129.255 0C129.882 8.14865 130.091 16.3081 129.882 24.4781Z" fill="#7E8590"/>
<path fill-rule="evenodd" clip-rule="evenodd" d="M129.882 69.6685C129.882 54.6051 129.882 39.5416 129.882 24.4781C139.806 17.3142 149.636 9.99172 159.373 2.51058C160.209 20.9213 160.209 39.3326 159.373 57.7433C149.474 61.6002 139.644 65.5757 129.882 69.6685Z" fill="#7E8590"/>
<path fill-rule="evenodd" clip-rule="evenodd" d="M94.7452 51.4669C94.7452 62.3458 94.7452 73.2254 94.7452 84.1044C83.2421 88.7069 71.7384 93.31 60.2354 97.9126C59.611 91.1208 59.4021 84.2167 59.6079 77.2003C71.3318 68.6072 83.0445 60.0292 94.7452 51.4669Z" fill="#7E8590"/>
<path fill-rule="evenodd" clip-rule="evenodd" d="M29.4902 100.423C30.1177 103.352 30.7451 106.281 31.3726 109.21C21.1158 114.027 10.6582 118.317 0 122.077C9.76497 114.707 19.595 107.489 29.4902 100.423Z" fill="#7E8590"/>
</svg>

<svg width="160" height="145" viewBox="0 0 160 145" fill="none" xmlns="http://www.w3.org/2000/svg"><path fill-rule="evenodd" clip-rule="evenodd" d="M129.882 24.478v45.19c.105 9.627 0 19.25-.313 28.872-1.997 20.435-12.35 34.767-31.06 42.994-25.707 8.374-46.309 1.575-61.803-20.399a74.855 74.855 0 0 1-5.333-11.925l-1.883-8.787c-.209-15.278 0-30.551.628-45.818 9.674-5.519 19.4-10.959 29.176-16.319.314 12.97.419 25.942.314 38.914a171.23 171.23 0 0 0 .627 20.713c1.575 9.159 7.013 13.971 16.314 14.435 9.357-.264 15.317-4.866 17.882-13.808.314-4.807.418-9.62.314-14.436V51.467a437.432 437.432 0 0 1 .628-32.952A1668.973 1668.973 0 0 1 129.255 0c.627 8.149.836 16.308.627 24.478z" fill="#7E8590"/><path fill-rule="evenodd" clip-rule="evenodd" d="M129.882 69.668v-45.19a1231.247 1231.247 0 0 0 29.491-21.967c.836 18.41.836 36.822 0 55.232a1249.09 1249.09 0 0 0-29.491 11.925zM94.745 51.467v32.637l-34.51 13.809a171.23 171.23 0 0 1-.627-20.713 56753.228 56753.228 0 0 1 35.137-25.733zM29.49 100.423l1.883 8.787A339.308 339.308 0 0 1 0 122.077a1385.246 1385.246 0 0 1 29.49-21.654z" fill="#7E8590"/></svg>
